X:449
T: Cange
N: C2067
O: China,Zhejiang Deqing
S: III, 611, 2)]
R: Xiaodiao]
M: 2/4
L: 1/16
K: F
A2AGA2c2 | f2d4dc | A2c2d2f2 | cdcGA4 |
A3cd2f2 | c2dfc2A2 | G2c2c2F2 | G2AcG4 |
c2d2c2A2 | G2c2G2A2 | D2F2c2A2 | c2F2G4 |
f2f2d2f2 | c2f2d2c2 | A6dc | A6z2

@@@ Tune index: 7004
